public/icons/web_link.svg

<svg viewBox="0 -3 24 24" id="meteor-icon-kit__regular-link-horizontal-slash" fill="none" xmlns="http://www.w3.org/2000/svg" stroke="#e2e2e2"><g id="SVGRepo_bgCarrier" stroke-width="0"></g><g id="SVGRepo_tracerCarrier" stroke-linecap="round" stroke-linejoin="round"></g><g id="SVGRepo_iconCarrier"><path fill-rule="evenodd" clip-rule="evenodd" d="M7.55276 0.10555C8.04674 -0.14144 8.64741 0.05878 8.8944 0.55276L16.8944 16.5528C17.1414 17.0467 16.9412 17.6474 16.4472 17.8944C15.9532 18.1414 15.3525 17.9412 15.1055 17.4472L7.10555 1.44719C6.85856 0.95321 7.05878 0.35254 7.55276 0.10555zM4 5C2.89543 5 2 5.89543 2 7V11C2 12.1046 2.89543 13 4 13H10C10.5523 13 11 13.4477 11 14C11 14.5523 10.5523 15 10 15H4C1.79086 15 0 13.2091 0 11V7C0 4.79086 1.79086 3 4 3H5C5.55228 3 6 3.44772 6 4C6 4.55228 5.55228 5 5 5H4zM22 11C22 12.1046 21.1046 13 20 13H19C18.4477 13 18 13.4477 18 14C18 14.5523 18.4477 15 19 15H20C22.2091 15 24 13.2091 24 11V7C24 4.79086 22.2091 3 20 3H14C13.4477 3 13 3.44771 13 4C13 4.55229 13.4477 5 14 5H20C21.1046 5 22 5.89543 22 7V11z" fill="#e2e2e2"></path></g></svg>

<svg viewBox="0 -3 24 24" fill="none" xmlns="http://www.w3.org/2000/svg" stroke="#e2e2e2"><path fill-rule="evenodd" clip-rule="evenodd" d="M7.55.1A1 1 0 0 1 8.9.56l8 16a1 1 0 1 1-1.78.9l-8-16A1 1 0 0 1 7.55.1zM4 5a2 2 0 0 0-2 2v4c0 1.1.9 2 2 2h6a1 1 0 1 1 0 2H4a4 4 0 0 1-4-4V7a4 4 0 0 1 4-4h1a1 1 0 0 1 0 2H4zm18 6a2 2 0 0 1-2 2h-1a1 1 0 1 0 0 2h1a4 4 0 0 0 4-4V7a4 4 0 0 0-4-4h-6a1 1 0 1 0 0 2h6a2 2 0 0 1 2 2v4z" fill="#e2e2e2"/></svg>
